X:1
T:Scarborough Sand
M:3/4
L:1/8
K:D
 A,2| D2 F2 D2|
M:4/4
 A,2 C2- A,2 D2|
M:3/4
 D2 B,2 D2| A,4 FG| A3 AB A| F A3 AG| FD G2 F2| F- E3 DE| A3 AB A|\
 F A3 z G|F-D G2 F2| F- E3 FD|
M:4/4
 E2 EC D2 EF|
M:3/4
G-EC-A,|B,-C| D4||

